symbols/iconen/afv_grof.svg

<?xml version="1.0" encoding="UTF-8" standalone="no"?>
<svg
   xmlns:dc="http://purl.org/dc/elements/1.1/"
   xmlns:cc="http://creativecommons.org/ns#"
   xmlns:rdf="http://www.w3.org/1999/02/22-rdf-syntax-ns#"
   xmlns:svg="http://www.w3.org/2000/svg"
   xmlns="http://www.w3.org/2000/svg"
   viewBox="0 0 226.772 264.56668"
   height="264.56668"
   width="226.772"
   xml:space="preserve"
   id="svg2"
   version="1.1"><metadata
     id="metadata8"><rdf:RDF><cc:Work
         rdf:about=""><dc:format>image/svg+xml</dc:format><dc:type
           rdf:resource="http://purl.org/dc/dcmitype/StillImage" /></cc:Work></rdf:RDF></metadata><defs
     id="defs6"><clipPath
       id="clipPath18"
       clipPathUnits="userSpaceOnUse"><path
         id="path16"
         d="M 0,198.425 H 170.079 V 0 H 0 Z" /></clipPath><clipPath
       id="clipPath32"
       clipPathUnits="userSpaceOnUse"><path
         id="path30"
         d="M 0,198.425 H 170.079 V 0 H 0 Z" /></clipPath><clipPath
       id="clipPath74"
       clipPathUnits="userSpaceOnUse"><path
         id="path72"
         d="M 0,198.425 H 170.079 V 0 H 0 Z" /></clipPath></defs><g
     transform="matrix(1.3333333,0,0,-1.3333333,0,264.56667)"
     id="g10"><g
       id="g12"><g
         clip-path="url(#clipPath18)"
         id="g14"><g
           transform="translate(165.8226,198.4252)"
           id="g20"><path
             id="path22"
             style="fill:#254aa5;fill-opacity:1;fill-rule:nonzero;stroke:none"
             d="m 0,0 h -161.566 c -2.351,0 -4.257,-1.905 -4.257,-4.256 v -156.151 -5.416 -26.528 c 0,-3.355 2.72,-6.074 6.074,-6.074 H -1.818 c 3.355,0 6.074,2.719 6.074,6.074 v 26.528 5.416 156.151 C 4.256,-1.905 2.351,0 0,0" /></g><path
           id="path24"
           style="fill:#ffffff;fill-opacity:1;fill-rule:nonzero;stroke:none"
           d="M 8.5,189.925 H 161.579 V 38.018 H 8.5 Z" /></g></g><g
       id="g26"><g
         clip-path="url(#clipPath32)"
         id="g28"><g
           transform="translate(30.39,19.9545)"
           id="g34"><path
             id="path36"
             style="fill:#ffffff;fill-opacity:1;fill-rule:nonzero;stroke:none"
             d="m 0,0 c 0,4.924 3.449,8.398 8.323,8.398 2.474,0 4.549,-0.8 6.024,-2.4 l -2.15,-2.05 C 11.273,4.974 9.947,5.573 8.373,5.573 5.424,5.573 3.374,3.273 3.374,0 c 0,-3.35 2,-5.674 4.874,-5.674 2.624,0 4.449,1.499 4.449,3.674 v 0.425 H 8.773 v 2.724 h 7.223 v -2.524 c 0,-4.149 -3.225,-7.073 -7.848,-7.073 C 3.374,-8.448 0,-4.949 0,0" /></g><g
           transform="translate(49.265,24.1527)"
           id="g38"><path
             id="path40"
             style="fill:#ffffff;fill-opacity:1;fill-rule:nonzero;stroke:none"
             d="m 0,0 h 2.924 v -2.049 h 0.05 c 0.6,1.4 1.7,2.15 3.149,2.15 0.375,0 0.9,-0.051 1.1,-0.125 v -2.95 c -0.35,0.1 -1.025,0.175 -1.525,0.175 -1.574,0 -2.599,-1.2 -2.599,-3.05 v -6.498 H 0 Z" /></g><g
           transform="translate(63.8881,14.2055)"
           id="g42"><path
             id="path44"
             style="fill:#ffffff;fill-opacity:1;fill-rule:nonzero;stroke:none"
             d="M 0,0 C 2,0 3.399,1.55 3.399,3.774 3.399,5.999 2,7.548 0,7.548 -1.999,7.548 -3.399,5.999 -3.399,3.774 -3.399,1.55 -1.999,0 0,0 m -6.573,3.774 c 0,3.774 2.749,6.473 6.573,6.473 3.824,0 6.574,-2.699 6.574,-6.473 C 6.574,0 3.824,-2.699 0,-2.699 -3.824,-2.699 -6.573,0 -6.573,3.774" /></g><g
           transform="translate(73.764,21.5785)"
           id="g46"><path
             id="path48"
             style="fill:#ffffff;fill-opacity:1;fill-rule:nonzero;stroke:none"
             d="M 0,0 H -2.1 V 2.574 H 0 v 1.6 c 0,2.824 1.675,4.474 4.549,4.474 0.35,0 0.875,-0.05 1.15,-0.1 V 5.874 C 5.398,5.948 4.974,5.999 4.624,5.999 3.649,5.999 3.1,5.349 3.1,4.174 v -1.6 H 6.099 V 0 H 3.1 V -9.772 H 0 Z" /></g><g
           transform="translate(94.9125,16.4047)"
           id="g50"><path
             id="path52"
             style="fill:#ffffff;fill-opacity:1;fill-rule:nonzero;stroke:none"
             d="M 0,0 V 0.7 L -2.05,0.675 c -1.624,-0.025 -2.499,-0.6 -2.499,-1.674 0,-0.95 0.75,-1.625 1.8,-1.625 C -1.125,-2.624 0,-1.55 0,0 m -7.673,-1.074 c 0,2.374 1.975,3.799 5.274,3.824 L 0,2.774 v 0.401 c 0,1.449 -0.925,2.199 -2.6,2.199 -1.099,0 -2.074,-0.425 -2.749,-1.2 l -1.875,1.825 c 1.076,1.324 2.8,2.049 4.924,2.049 3.3,0 5.4,-1.799 5.4,-4.674 v -4.898 c 0,-0.451 0.199,-0.65 0.699,-0.65 h 0.225 v -2.425 h -1.45 c -1.175,0 -1.974,0.55 -2.224,1.45 H 0.3 c -0.775,-1.124 -2.05,-1.749 -3.599,-1.749 -2.599,0 -4.374,1.549 -4.374,3.824" /></g><g
           transform="translate(101.9379,21.5785)"
           id="g54"><path
             id="path56"
             style="fill:#ffffff;fill-opacity:1;fill-rule:nonzero;stroke:none"
             d="M 0,0 H -2.1 V 2.574 H 0 v 1.6 c 0,2.824 1.675,4.474 4.549,4.474 0.35,0 0.875,-0.05 1.15,-0.1 V 5.874 C 5.398,5.948 4.974,5.999 4.624,5.999 3.649,5.999 3.1,5.349 3.1,4.174 v -1.6 H 6.099 V 0 H 3.1 V -9.772 H 0 Z" /></g><g
           transform="translate(108.639,24.1527)"
           id="g58"><path
             id="path60"
             style="fill:#ffffff;fill-opacity:1;fill-rule:nonzero;stroke:none"
             d="m 0,0 h 3.374 l 2.874,-8.897 h 0.05 L 9.247,0 h 3.3 L 7.897,-12.347 H 4.573 Z" /></g><g
           transform="translate(129.5121,16.4047)"
           id="g62"><path
             id="path64"
             style="fill:#ffffff;fill-opacity:1;fill-rule:nonzero;stroke:none"
             d="M 0,0 V 0.7 L -2.05,0.675 c -1.624,-0.025 -2.499,-0.6 -2.499,-1.674 0,-0.95 0.75,-1.625 1.8,-1.625 C -1.125,-2.624 0,-1.55 0,0 m -7.673,-1.074 c 0,2.374 1.975,3.799 5.274,3.824 L 0,2.774 v 0.401 c 0,1.449 -0.925,2.199 -2.6,2.199 -1.099,0 -2.074,-0.425 -2.749,-1.2 l -1.875,1.825 c 1.076,1.324 2.8,2.049 4.924,2.049 3.3,0 5.4,-1.799 5.4,-4.674 v -4.898 c 0,-0.451 0.199,-0.65 0.699,-0.65 h 0.225 v -2.425 h -1.45 c -1.175,0 -1.974,0.55 -2.224,1.45 H 0.3 c -0.775,-1.124 -2.05,-1.749 -3.599,-1.749 -2.599,0 -4.374,1.549 -4.374,3.824" /></g><path
           id="path66"
           style="fill:#ffffff;fill-opacity:1;fill-rule:nonzero;stroke:none"
           d="m 135.963,29.926 h 3.099 v -18.12 h -3.099 z" /></g></g><g
       id="g68"><g
         clip-path="url(#clipPath74)"
         id="g70"><g
           transform="translate(136.1655,55.1573)"
           id="g76"><path
             id="path78"
             style="fill:#231f20;fill-opacity:1;fill-rule:nonzero;stroke:none"
             d="m 0,0 c 0,-0.452 -0.314,-0.82 -0.699,-0.82 h -75.202 c -0.386,0 -0.699,0.368 -0.699,0.82 v 38.159 h -1.483 v 0.016 c -5.116,0 -7.406,4.373 -7.406,8.706 0,4.8 3.905,8.705 8.705,8.705 4.801,0 8.706,-3.905 8.706,-8.705 V 32.574 c -1.311,-0.725 -2.212,-2.105 -2.212,-3.707 v -10.7 c 0,-2.345 1.908,-4.252 4.252,-4.252 H -10.7 c 2.345,0 4.252,1.907 4.252,4.252 v 10.7 c 0,1.598 -0.896,2.976 -2.202,3.702 v 14.312 c 0,4.8 3.905,8.705 8.706,8.705 4.8,0 8.706,-3.905 8.706,-8.705 0,-4.333 -2.293,-8.706 -7.414,-8.706 V 38.159 H 0 Z m -37.947,49.285 c -0.51,0 -1.023,-0.025 -1.532,-0.076 0.908,1.025 1.676,2.185 2.253,3.422 0.209,-0.219 0.401,-0.455 0.577,-0.711 0.608,-0.887 0.947,-1.895 1.126,-2.841 -0.794,0.14 -1.607,0.206 -2.424,0.206 m -9.02,-0.185 c -1.976,-0.438 -2.684,-0.12 -2.851,-0.011 -0.102,0.064 -0.218,0.168 -0.31,0.589 -0.166,0.757 0.07,1.97 0.975,2.974 1.168,1.297 3.174,1.979 5.754,1.979 0.589,0 1.211,-0.035 1.857,-0.108 0.23,-0.026 0.455,-0.057 0.672,-0.096 -1.169,-2.596 -3.562,-4.767 -6.097,-5.327 m 1.531,-7.066 c 0.565,1.111 1.926,2.024 3.938,2.639 0.992,0.304 2.246,0.532 3.548,0.532 0.744,0 1.503,-0.074 2.237,-0.253 -0.991,-2.438 -3.448,-4.742 -6.223,-5.763 -1.223,-0.451 -2.28,-0.517 -2.972,-0.19 -0.446,0.211 -0.58,0.516 -0.611,0.604 -0.31,0.893 -0.282,1.711 0.083,2.431 m 34.739,-23.867 h -55.341 v 10.7 H -10.7 Z m -57.408,65.211 c 0,0.446 0.477,0.822 1.042,0.822 h 57.411 c 0.564,0 1.042,-0.376 1.042,-0.822 V 61.725 c -5.102,-2.99 -8.544,-8.517 -8.544,-14.844 V 33.119 h -10.582 c 0.67,1.762 1.61,5.182 0.544,8.659 -0.8,2.608 -2.266,4.452 -4.092,5.66 -0.049,2.011 -0.523,4.565 -1.949,6.693 -0.753,1.124 -1.713,2.053 -2.852,2.769 0.271,3.719 -1.407,6.969 -4.711,9.037 -1.579,0.989 -3.187,1.66 -4.779,1.996 l -0.84,-3.98 c 1.123,-0.238 2.287,-0.73 3.461,-1.464 1.871,-1.172 2.594,-2.665 2.777,-4.054 -0.299,0.053 -0.603,0.097 -0.914,0.131 -6.171,0.691 -9.433,-1.355 -11.086,-3.192 -1.67,-1.855 -2.407,-4.372 -1.925,-6.569 0.306,-1.396 1.011,-2.453 2.093,-3.145 0.947,-0.605 2.102,-0.884 3.517,-0.851 -0.235,-0.325 -0.422,-0.639 -0.571,-0.933 -0.873,-1.719 -0.976,-3.658 -0.299,-5.607 0.439,-1.265 1.428,-2.338 2.714,-2.947 1.193,-0.564 3.223,-1.016 6.117,0.049 3.614,1.329 6.764,4.195 8.312,7.435 0.475,-0.599 0.865,-1.331 1.136,-2.22 0.911,-2.969 -0.476,-6.141 -0.743,-6.709 -0.149,-0.23 -0.264,-0.487 -0.379,-0.758 h -27.369 v 13.762 c 0,6.322 -3.437,11.844 -8.531,14.836 z M 17.799,-6.242 8.504,22.183 v 9.161 c 5.326,2.687 8.762,8.404 8.762,15.537 0,9.489 -7.721,17.209 -17.21,17.209 -0.056,0 -0.111,-0.007 -0.166,-0.008 v 19.296 c 0,5.141 -4.281,9.322 -9.542,9.322 h -4.905 l -10.827,33.108 -9.504,-3.109 9.81,-29.999 h -2.037 l -15.657,32.124 -8.989,-4.382 13.522,-27.742 h -28.824 c -5.262,0 -9.542,-4.181 -9.542,-9.322 V 64.081 c -0.06,10e-4 -0.119,0.009 -0.179,0.009 -9.489,0 -17.209,-7.72 -17.209,-17.209 0,-7.192 3.49,-12.944 8.889,-15.602 V 0 c 0,-5.142 4.128,-9.324 9.203,-9.324 h 75.202 c 3.176,0 5.982,1.639 7.636,4.126 L 8.295,-9.35 Z" /></g><g
           transform="translate(44.4999,140.9107)"
           id="g80"><path
             id="path82"
             style="fill:#231f20;fill-opacity:1;fill-rule:nonzero;stroke:none"
             d="m 0,0 15.086,13.27 -28.757,21.309 -14.714,-12.943 17.196,-31.478 7.84,6.896 3.95,-9.003 -22.172,-74.655 h -5.872 v -8.5 h 16.954 v 8.5 h -6.648 l 22.255,74.937 z" /></g></g></g></g></svg>

<svg xmlns="http://www.w3.org/2000/svg" xmlns:xlink="http://www.w3.org/1999/xlink" version="1.1" width="170.079pt" height="170.079pt" viewBox="0 0 170.079 170.079">
<defs>
<clipPath id="clip_0">
<path transform="matrix(1,0,0,-1,0,170.079)" d="M0 170.079H170.079V0H0Z"/>
</clipPath>
</defs>
<g id="layer_1" data-name="Witte achtergrond">
<path transform="matrix(1,0,0,-1,0,170.079)" d="M0 0H170.078V170.078H0Z" fill="#ffffff"/>
</g>
<g id="layer_1" data-name="Icoon">
<g clip-path="url(#clip_0)">
<path transform="matrix(1,0,0,-1,136.1655,143.2681)" d="M0 0C0-.452-.313-.82-.699-.82H-75.901C-76.287-.82-76.6-.452-76.6 0V38.159H-78.083V38.175C-83.199 38.175-85.489 42.548-85.489 46.881-85.489 51.681-81.584 55.586-76.784 55.586-71.983 55.586-68.078 51.681-68.078 46.881V32.574C-69.389 31.849-70.29 30.469-70.29 28.867V18.167C-70.29 15.822-68.382 13.915-66.038 13.915H-10.7C-8.355 13.915-6.448 15.822-6.448 18.167V28.867C-6.448 30.465-7.344 31.843-8.65 32.569V46.881C-8.65 51.681-4.745 55.586 .056 55.586 4.856 55.586 8.762 51.681 8.762 46.881 8.762 42.548 6.469 38.175 1.348 38.175V38.159H0ZM-37.947 49.285C-38.457 49.285-38.97 49.26-39.479 49.209-38.571 50.234-37.803 51.394-37.226 52.631-37.017 52.412-36.825 52.176-36.649 51.92-36.041 51.033-35.702 50.025-35.523 49.079-36.317 49.219-37.13 49.285-37.947 49.285M-46.967 49.1C-48.943 48.662-49.651 48.979-49.818 49.089-49.92 49.153-50.036 49.257-50.128 49.678-50.294 50.435-50.058 51.647-49.153 52.652-47.985 53.949-45.979 54.631-43.399 54.631-42.81 54.631-42.188 54.596-41.542 54.523-41.312 54.497-41.087 54.466-40.87 54.427-42.039 51.831-44.432 49.66-46.967 49.1M-45.436 42.034C-44.871 43.145-43.51 44.058-41.498 44.673-40.506 44.977-39.252 45.205-37.95 45.205-37.206 45.205-36.447 45.131-35.713 44.952-36.704 42.514-39.161 40.21-41.936 39.189-43.159 38.738-44.216 38.672-44.908 38.999-45.354 39.21-45.488 39.515-45.519 39.603-45.829 40.496-45.801 41.314-45.436 42.034M-10.697 18.167H-66.038V28.867H-10.7ZM-68.105 83.378C-68.105 83.824-67.628 84.2-67.063 84.2H-9.652C-9.088 84.2-8.61 83.824-8.61 83.378V61.725C-13.711 58.735-17.154 53.208-17.154 46.881V33.119H-27.736C-27.066 34.881-26.126 38.301-27.192 41.778-27.992 44.386-29.458 46.229-31.284 47.438-31.333 49.449-31.807 52.003-33.233 54.131-33.986 55.255-34.946 56.184-36.085 56.9-35.814 60.619-37.492 63.869-40.796 65.937-42.375 66.926-43.983 67.597-45.575 67.933L-46.415 63.953C-45.292 63.715-44.128 63.223-42.954 62.489-41.083 61.317-40.36 59.824-40.177 58.435-40.476 58.488-40.78 58.532-41.091 58.566-47.262 59.257-50.524 57.211-52.177 55.374-53.847 53.519-54.584 51.002-54.102 48.805-53.795 47.409-53.091 46.352-52.009 45.66-51.062 45.055-49.907 44.776-48.492 44.809-48.727 44.484-48.914 44.17-49.063 43.876-49.936 42.157-50.039 40.218-49.362 38.269-48.923 37.004-47.934 35.931-46.648 35.322-45.455 34.758-43.425 34.306-40.531 35.371-36.917 36.7-33.767 39.566-32.219 42.806-31.744 42.207-31.354 41.475-31.083 40.586-30.172 37.617-31.559 34.445-31.826 33.877-31.975 33.647-32.09 33.39-32.205 33.119H-59.574V46.881C-59.574 53.203-63.011 58.725-68.105 61.717ZM17.799-6.242 8.504 22.183V31.344C13.83 34.031 17.266 39.748 17.266 46.881 17.266 56.37 9.545 64.09 .056 64.09 0 64.09-.054 64.082-.11 64.082V83.378C-.11 88.519-4.391 92.7-9.652 92.7H-14.557L-25.384 125.808-34.888 122.699-25.078 92.7H-27.115L-42.772 124.824-51.761 120.442-38.239 92.7H-67.063C-72.325 92.7-76.605 88.519-76.605 83.378V64.081C-76.665 64.082-76.724 64.09-76.784 64.09-86.273 64.09-93.993 56.37-93.993 46.881-93.993 39.689-90.502 33.937-85.104 31.279V0C-85.104-5.142-80.976-9.324-75.901-9.324H-.699C2.477-9.324 5.283-7.685 6.937-5.198L8.295-9.35Z" fill="#231f20"/>
<path transform="matrix(1,0,0,-1,44.4999,57.514795)" d="M0 0 15.086 13.27-13.671 34.579-28.385 21.636-11.189-9.842-3.349-2.946 .601-11.949-21.571-86.604H-27.443V-95.104H-10.489V-86.604H-17.137L5.118-11.667Z" fill="#231f20"/>
</g>
</g>
</svg>
